res/skins/LateNight/buttons/btn_beats_later_down.svg

<?xml version="1.0" encoding="UTF-8"?>
<!-- Created with Inkscape (http://www.inkscape.org/) -->
<svg id="svg3935" width="26" height="26" version="1.1" xmlns="http://www.w3.org/2000/svg" xmlns:cc="http://creativecommons.org/ns#" xmlns:dc="http://purl.org/dc/elements/1.1/" xmlns:rdf="http://www.w3.org/1999/02/22-rdf-syntax-ns#">
 <metadata id="metadata3947">
  <rdf:RDF>
   <cc:Work rdf:about="">
    <dc:format>image/svg+xml</dc:format>
    <dc:type rdf:resource="http://purl.org/dc/dcmitype/StillImage"/>
    <dc:title/>
   </cc:Work>
  </rdf:RDF>
 </metadata>
 <path id="path4757" d="m18 22h-2v-9h2z" fill="#888"/>
 <path id="path4753" d="m10 22h2v-12h-2z" fill="#888"/>
 <path id="path4-1" d="m16 4v3l-11 1e-6v2l11-1e-6v3l7-4z" fill="#d2d2d2"/>
 <path id="path4753-2" d="m10 6h2v-2h-2z" fill="#888"/>
 <path id="path4753-7" d="m4 22h2v-12h-2z" fill="#888"/>
 <path id="path4753-2-0" d="m4 6h2v-2h-2z" fill="#888"/>
</svg>

<?xml version="1.0" encoding="UTF-8" standalone="no"?>
<!-- Created with Inkscape (http://www.inkscape.org/) -->

<svg
   xmlns:dc="http://purl.org/dc/elements/1.1/"
   xmlns:cc="http://creativecommons.org/ns#"
   xmlns:rdf="http://www.w3.org/1999/02/22-rdf-syntax-ns#"
   xmlns:svg="http://www.w3.org/2000/svg"
   xmlns="http://www.w3.org/2000/svg"
   version="1.1"
   width="26"
   height="26"
   id="svg3935">
  <metadata
     id="metadata3947">
    <rdf:RDF>
      <cc:Work
         rdf:about="">
        <dc:format>image/svg+xml</dc:format>
        <dc:type
           rdf:resource="http://purl.org/dc/dcmitype/StillImage" />
        <dc:title></dc:title>
      </cc:Work>
    </rdf:RDF>
  </metadata>
  <defs
     id="defs3945" />
  <path
     d="m 18,22 -2,0 0,-9 2,0 z"
     id="path4757"
     style="fill:#888888;fill-opacity:1" />
  <path
     d="m 10,22 h 2 l 0,-12 -2,0 z"
     id="path4753"
     style="fill:#888888;fill-opacity:1" />
  <path
     d="m 15.999999,4 0,3 L 5,7.000001 5,9 15.999999,8.999999 15.999999,12 23,8 z"
     id="path4-1"
     style="fill:#d2d2d2;fill-opacity:1" />
  <path
     d="m 10,6 h 2 l 0,-2 -2,0 z"
     id="path4753-2"
     style="fill:#888888;fill-opacity:1" />
  <path
     d="M 4,22 H 6 L 6,10 4,10 z"
     id="path4753-7"
     style="fill:#888888;fill-opacity:1" />
  <path
     d="M 4,6 H 6 L 6,4 4,4 z"
     id="path4753-2-0"
     style="fill:#888888;fill-opacity:1" />
</svg>
